X: 4
T: Boolavogue
R: waltz
M: 3/4
L: 1/8
K: Dmaj
|:D2|"C"G4 D2|"C"G4 Bd|"C"g4 "Em"f2|"F"eg3 e2|
"C"d4 "A"e2|"Am"B<(G G)B|"Dm"A4 "D"G2|"F"E4 "G"D2|
"C"G4 "C"D2|"C"G4 Bd|"C"g4 "Em"f2|"F"eg3 e2|
"C"d4 e2|"Am"B<(G "G"G)B|"A"A4 "C"G2|"C"G4 "C"d2||
|:"C"d4 B2|"B"d2 e2 f2|"Am"g4 f2|"F"eg3 e2|
"C"d4 e2|"Am"B<(G G)B|"Dm"A4 "F"G2|"F"E4 "G"D2|
"C"G4 D2|"C"G4 Bd|"C"g4 "Em"f2|"F"eg3 e2|
"C"d4 e2|"Am"B2 "G"GB|"Dm"A4 "C"G2|"C"G4||


Tune 5322	Setting 17525

